tipitek/img/app-card-icon-5.svg

<svg width="56" height="56" viewBox="0 0 56 56" fill="none" xmlns="http://www.w3.org/2000/svg">
<g clip-path="url(#clip0_971_4203)">
<path d="M52.7917 0.854431H38.995C37.6774 0.854431 36.6094 1.92248 36.6094 3.24001V10.1403C36.6094 11.4578 37.6774 12.5258 38.995 12.5258C39.7644 12.5258 40.3882 13.1496 40.3882 13.9191V18.1863C40.3882 18.7281 41.1016 18.9256 41.3803 18.461L44.5336 13.2025C44.6574 12.9962 44.8325 12.8254 45.0419 12.7068C45.2512 12.5882 45.4878 12.5259 45.7284 12.5258H52.7916C54.1092 12.5258 55.1772 11.4578 55.1772 10.1403V3.24012C55.1773 1.92259 54.1093 0.854431 52.7917 0.854431Z" fill="#B3E59F"/>
<path d="M52.7929 0.854431H45.6471C46.9646 0.854431 48.0327 1.92248 48.0327 3.24001V10.1403C48.0327 11.4578 46.9646 12.5258 45.6471 12.5258H38.9961C39.7655 12.5258 40.3893 13.1496 40.3893 13.9191V18.1862C40.3893 18.7279 41.1028 18.9255 41.3815 18.4609L44.5347 13.2024C44.6585 12.9961 44.8336 12.8253 45.043 12.7067C45.2524 12.5881 45.4889 12.5257 45.7295 12.5257H52.7929C54.1104 12.5257 55.1785 11.4577 55.1785 10.1402V3.24012C55.1785 1.92259 54.1104 0.854431 52.7929 0.854431Z" fill="#95D6A4"/>
<path d="M28.4563 34.2325C27.3317 34.016 26.519 33.032 26.519 31.8867V25.3259H17.3866V31.8867C17.3866 33.0567 16.5424 34.0225 15.4492 34.2324C15.4492 34.2324 29.0737 34.3514 28.4563 34.2325Z" fill="#FFDDCE"/>
<path d="M30.9894 34.7198C30.3391 34.5947 12.9183 34.7198 12.9183 34.7198C6.27659 35.9981 1.47656 41.8099 1.47656 48.5735V53.226C1.47656 54.2814 2.33209 55.1369 3.38745 55.1369H40.5202C41.5755 55.1369 42.431 54.2814 42.431 53.226V48.5735C42.4313 41.8099 37.6311 35.9981 30.9894 34.7198Z" fill="#FFD064"/>
<path d="M38.6141 52.9224H5.29378L4.41003 36.6398C4.33172 35.1975 5.48005 33.9852 6.92434 33.9852H36.9837C38.428 33.9852 39.5763 35.1975 39.498 36.6398L38.6141 52.9224Z" fill="#EAF2FF"/>
<path d="M36.9817 33.9852H29.8359C31.2802 33.9852 32.4286 35.1975 32.3502 36.6398L31.4664 52.9224H38.6122L39.4959 36.6398C39.5744 35.1975 38.426 33.9852 36.9817 33.9852Z" fill="#DBE8F9"/>
<path d="M41.3238 51.6178H2.5842C1.61 51.6178 0.820312 52.4075 0.820312 53.3817C0.820312 54.3559 1.61 55.1456 2.5842 55.1456H41.3238C42.298 55.1456 43.0877 54.3559 43.0877 53.3817C43.0876 52.4075 42.2979 51.6178 41.3238 51.6178Z" fill="#9BC4F9"/>
<path d="M41.3261 51.6178H35.8926V53.3816C35.8926 54.3558 35.1029 55.1455 34.1287 55.1455H41.326C42.3002 55.1455 43.0899 54.3558 43.0899 53.3816C43.0899 52.4074 42.3002 51.6178 41.3261 51.6178ZM24.1572 51.6178C24.1572 50.1723 24.6988 48.7825 25.6659 47.7083L25.6876 47.6841C26.4785 46.7993 26.9593 45.6315 26.9593 44.3513C26.9593 42.4857 25.9381 40.8586 24.4242 39.9984C24.137 39.8352 23.7802 40.0405 23.7802 40.3708V44.0929C23.7802 44.7167 23.2745 45.2225 22.6506 45.2225H21.2618C20.638 45.2225 20.1322 44.7167 20.1322 44.0929V40.3708C20.1322 40.0405 19.7754 39.8352 19.4882 39.9984C17.9744 40.8586 16.9531 42.4856 16.9531 44.3513C16.9531 45.6314 17.4339 46.7992 18.2249 47.6841L18.2466 47.7083C19.2137 48.7825 19.7553 50.1723 19.7553 51.6178H24.1572Z" fill="#7FB2F9"/>
<path d="M31.5039 16.6477L30.8937 16.6504L30.8834 14.1913C30.862 9.03906 26.6103 5.4696 21.8964 5.43646C17.203 5.50952 12.9611 9.09593 12.9825 14.2677L12.9897 16.0015L12.9928 16.7269L12.3826 16.7295C11.4879 16.7334 10.7657 17.4706 10.7695 18.3761L10.7771 20.1931C10.7808 21.0986 11.5091 21.8297 12.4038 21.8259L13.0164 21.8232C13.0768 24.2027 14.0743 26.489 15.8655 28.0368C17.3077 29.2831 19.332 30.3675 22.0002 30.3862C24.6682 30.3446 26.6834 29.243 28.115 27.9846C29.8933 26.4214 30.8717 24.1268 30.9123 21.7469L31.525 21.7443C32.4197 21.7404 33.1419 21.0033 33.138 20.0977L33.1305 18.2807C33.1268 17.375 32.3985 16.6439 31.5039 16.6477Z" fill="#FFDDCE"/>
<path d="M33.1301 18.2805C33.1263 17.375 32.398 16.6439 31.5033 16.6477L30.8931 16.6504L30.8828 14.1913C30.8658 10.0832 28.1583 6.98358 24.6724 5.87823C25.4152 7.13463 25.852 8.61349 25.8589 10.2538L25.888 21.7467C25.8474 24.1266 24.8691 26.4213 23.0907 27.9843C22.1407 28.8194 20.9334 29.585 19.4492 30.0182C20.2235 30.2441 21.0727 30.3795 21.9998 30.3861C24.6678 30.3445 26.6831 29.2429 28.1147 27.9845C29.893 26.4213 30.8714 24.1267 30.9119 21.7468L31.5247 21.7442C32.4193 21.7403 33.1415 21.0032 33.1377 20.0976L33.1301 18.2805Z" fill="#FFCBBE"/>
<path d="M30.9075 15.1669V21.9295H32.7034C33.7104 21.9295 34.5268 21.1131 34.5268 20.1061V16.9903C34.5268 15.9833 33.7104 15.1669 32.7034 15.1669H30.9075ZM13.0021 15.1669V21.9295H11.2062C10.1992 21.9295 9.38281 21.1131 9.38281 20.1061V16.9903C9.38281 15.9833 10.1992 15.1669 11.2062 15.1669H13.0021Z" fill="#9BC4F9"/>
<path d="M30.3063 7.58259H30.2144C29.9699 7.58259 29.7354 7.48547 29.5625 7.3126C29.3897 7.13972 29.2925 6.90526 29.2925 6.66078C29.2925 5.15326 28.0705 3.93121 26.563 3.93121H17.8754C14.0092 3.93121 10.875 7.06546 10.875 10.9317V15.558C10.875 15.8895 10.9782 16.2128 11.1702 16.4831C11.3623 16.7533 11.6337 16.957 11.9468 17.0661L13.6712 17.6664C14.2739 17.8763 14.9033 17.4282 14.9023 16.79L14.8986 13.5278C14.892 11.9413 16.1572 10.6497 17.7245 10.643L17.7586 10.6428C18.2363 10.6409 18.7113 10.7145 19.1661 10.8609C19.9691 11.1189 20.8013 11.2754 21.6447 11.2718H22.2661C23.1096 11.2754 23.9417 11.119 24.7447 10.8609C25.1995 10.7145 25.6745 10.6409 26.1522 10.6428L26.1863 10.643C27.7536 10.6498 29.0189 11.9413 29.0122 13.5278L29.009 16.7902C29.0082 17.4283 29.6376 17.8763 30.2403 17.6664L31.9641 17.0661C32.2772 16.957 32.5486 16.7533 32.7406 16.483C32.9326 16.2128 33.0358 15.8895 33.0358 15.558V10.312C33.0358 8.80464 31.8138 7.58259 30.3063 7.58259Z" fill="#756E78"/>
<path d="M30.3056 7.58259H30.2136C29.9691 7.58259 29.7346 7.48547 29.5618 7.3126C29.3889 7.13972 29.2918 6.90526 29.2918 6.66078C29.2918 5.15326 28.0697 3.93121 26.5622 3.93121H23.0977C24.7685 5.47318 25.8493 7.66309 25.8601 10.2537L25.8611 10.6518C25.9578 10.6456 26.0546 10.6427 26.1514 10.6428L26.1855 10.643C27.7529 10.6498 29.0181 11.9413 29.0115 13.5278L29.0083 16.7902C29.0074 17.4283 29.6369 17.8763 30.2395 17.6664L31.9634 17.0661C32.2764 16.957 32.5478 16.7533 32.7398 16.483C32.9319 16.2128 33.035 15.8895 33.035 15.558V10.312C33.035 8.80464 31.813 7.58259 30.3056 7.58259Z" fill="#665E66"/>
<path d="M28.1449 26.9146H26.0863C25.3008 26.9146 24.6641 26.2779 24.6641 25.4924C24.6641 24.707 25.3007 24.0702 26.0863 24.0702H28.1449C28.9303 24.0702 29.5671 24.7069 29.5671 25.4924C29.5671 26.2779 28.9303 26.9146 28.1449 26.9146Z" fill="#DB636E"/>
<path d="M51.5068 4.07442H44.3492C44.1316 4.07442 43.9229 4.16085 43.7691 4.31468C43.6153 4.46852 43.5288 4.67717 43.5288 4.89473C43.5288 5.11229 43.6153 5.32094 43.7691 5.47478C43.9229 5.62862 44.1316 5.71505 44.3492 5.71505H51.5068C51.7243 5.71505 51.933 5.62862 52.0868 5.47478C52.2407 5.32094 52.3271 5.11229 52.3271 4.89473C52.3271 4.67717 52.2407 4.46852 52.0868 4.31468C51.933 4.16085 51.7243 4.07442 51.5068 4.07442ZM40.2846 5.71505H41.157C41.3746 5.71505 41.5833 5.62862 41.7371 5.47478C41.8909 5.32094 41.9774 5.11229 41.9774 4.89473C41.9774 4.67717 41.8909 4.46852 41.7371 4.31468C41.5833 4.16085 41.3746 4.07442 41.157 4.07442H40.2846C40.067 4.07442 39.8584 4.16085 39.7045 4.31468C39.5507 4.46852 39.4643 4.67717 39.4643 4.89473C39.4643 5.11229 39.5507 5.32094 39.7045 5.47478C39.8584 5.62862 40.067 5.71505 40.2846 5.71505ZM40.2846 9.56855H51.5069C51.7244 9.56855 51.9331 9.48212 52.0869 9.32828C52.2408 9.17444 52.3272 8.96579 52.3272 8.74823C52.3272 8.53067 52.2408 8.32202 52.0869 8.16819C51.9331 8.01435 51.7244 7.92792 51.5069 7.92792H40.2846C40.067 7.92792 39.8584 8.01435 39.7045 8.16819C39.5507 8.32202 39.4643 8.53067 39.4643 8.74823C39.4643 8.96579 39.5507 9.17444 39.7045 9.32828C39.8584 9.48212 40.067 9.56855 40.2846 9.56855ZM43.2516 48.5734C43.2516 45.2967 42.1576 42.082 40.165 39.4847L40.317 36.6841C40.4205 34.7777 38.9076 33.1649 36.9835 33.1649H28.004C27.7991 33.0206 27.6319 32.8291 27.5164 32.6067C27.4009 32.3843 27.3405 32.1374 27.3404 31.8867V29.5963C28.7326 28.6959 29.7101 27.6691 30.4281 26.4472H32.0156C33.8521 26.4472 35.3462 24.9531 35.3462 23.1166V16.9903C35.3462 15.957 34.7484 15.0436 33.8545 14.6115V10.312C33.8545 8.35459 32.2621 6.76209 30.3047 6.76209H30.2128C30.1859 6.76204 30.1601 6.75132 30.1411 6.7323C30.122 6.71328 30.1113 6.68749 30.1113 6.66059C30.1113 4.70322 28.5188 3.11072 26.5614 3.11072H17.8738C13.5615 3.11072 10.0531 6.61914 10.0531 10.9315V14.6114C9.15928 15.0435 8.56144 15.9569 8.56144 16.9902V20.1058C8.56144 21.5636 9.74739 22.7495 11.2051 22.7495H12.2641C12.5382 25.0679 13.6257 27.1851 15.3291 28.6571C15.72 28.995 16.1337 29.3056 16.5672 29.5867V31.8866C16.5672 32.3972 16.3157 32.8714 15.9007 33.1648H6.92442C5.01517 33.1648 3.48666 34.7627 3.591 36.684L3.74303 39.4846C1.75033 42.082 0.656359 45.2967 0.656359 48.5734V51.6632C0.2485 52.1202 0 52.7223 0 53.3817C0 54.8066 1.15927 55.9657 2.5842 55.9657H41.3237C42.7487 55.9657 43.9079 54.8065 43.9079 53.3817C43.9079 52.7223 43.6594 52.1202 43.2516 51.6633V48.5734ZM41.611 48.5734V50.8137C41.5156 50.803 41.4197 50.7976 41.3237 50.7975H39.551L40.014 42.2673C41.0523 44.1957 41.611 46.3682 41.611 48.5734ZM33.6214 16.5898C33.6769 16.716 33.7056 16.8525 33.7058 16.9904V20.1061C33.7058 20.6592 33.2558 21.1091 32.7027 21.1091H31.7272V18.0168L32.2327 17.8407C32.8581 17.6228 33.35 17.1634 33.6214 16.5898ZM28.1447 26.0942H26.086C25.7542 26.0942 25.4842 25.8243 25.4842 25.4925C25.4842 25.1606 25.7542 24.8907 26.086 24.8907H28.1447C28.4765 24.8907 28.7465 25.1606 28.7465 25.4925C28.7465 25.8243 28.4765 26.0942 28.1447 26.0942ZM32.0158 24.8067H31.1866C31.4195 24.1404 31.5787 23.4507 31.6612 22.7498H32.7027C33.0576 22.7498 33.3962 22.679 33.7058 22.5516V23.1168C33.7058 24.0486 32.9476 24.8067 32.0158 24.8067ZM11.6939 10.9317C11.6939 7.524 14.4664 4.75156 17.8741 4.75156H26.5616C27.6143 4.75156 28.4709 5.60808 28.4709 6.66081C28.4709 7.62145 29.2525 8.40294 30.213 8.40294H30.305C31.3577 8.40294 32.2141 9.25945 32.2141 10.3122V15.5581C32.214 15.7193 32.1638 15.8765 32.0704 16.0079C31.977 16.1393 31.8451 16.2384 31.6929 16.2915L29.9691 16.8919C29.953 16.8976 29.9359 16.8993 29.919 16.897C29.9021 16.8946 29.8861 16.8882 29.8722 16.8783C29.8584 16.8684 29.8471 16.8553 29.8394 16.8401C29.8317 16.825 29.8278 16.8081 29.828 16.7911L29.8312 13.5313C29.8411 11.1523 27.6135 9.07745 24.4923 10.08C22.9226 10.5844 20.98 10.5827 19.4155 10.08C16.3267 9.0873 14.0667 11.1253 14.0767 13.5288L14.0805 16.7913C14.0807 16.8083 14.0767 16.8251 14.069 16.8403C14.0613 16.8554 14.05 16.8685 14.0362 16.8784C14.0223 16.8882 14.0063 16.8946 13.9894 16.897C13.9726 16.8993 13.9554 16.8976 13.9394 16.8919L12.215 16.2914C12.0628 16.2383 11.9309 16.1392 11.8375 16.0078C11.7441 15.8764 11.6939 15.7192 11.6938 15.558L11.6939 10.9317ZM10.2023 20.1061V16.9903C10.2024 16.8524 10.2311 16.7159 10.2866 16.5897C10.5582 17.1634 11.05 17.6228 11.6757 17.8407L12.1811 18.0167V21.109H11.2055C10.6522 21.1091 10.2023 20.6591 10.2023 20.1061ZM13.8367 21.8022C13.8095 20.7238 13.8262 19.5791 13.8216 18.5311C13.8721 18.5354 13.9228 18.538 13.9734 18.538C14.9487 18.538 15.7228 17.7452 15.7211 16.7889L15.7173 13.5243C15.7117 12.1923 16.9065 10.9968 18.9136 11.6419C20.8158 12.253 23.0982 12.2512 24.9943 11.6419C26.9065 11.0275 28.1964 12.1091 28.1905 13.527L28.1874 16.7892C28.186 17.8059 29.0551 18.6205 30.0863 18.5311V21.8686C30.0628 22.5667 29.949 23.2587 29.7478 23.9275C29.3404 23.5101 28.7726 23.2499 28.1447 23.2499H26.086C24.8496 23.2499 23.8435 24.2559 23.8435 25.4923C23.8435 26.7288 24.8496 27.7347 26.086 27.7347H27.1283C25.6131 28.9174 23.8901 29.5341 21.997 29.5655C17.8556 29.5323 13.9552 26.4728 13.8367 21.8022ZM18.2082 31.8868V30.4515C19.3939 30.9425 20.6589 31.1969 21.9948 31.2063H22.0006L22.0134 31.2062C23.3139 31.186 24.5453 30.934 25.7001 30.4582V31.8867C25.7001 32.3346 25.7938 32.7682 25.9664 33.1649H17.9409C18.1171 32.7618 18.2081 32.3267 18.2082 31.8868ZM3.89397 42.2673L4.02347 44.654C4.04808 45.1065 4.43559 45.4544 4.88698 45.4287C5.10423 45.4169 5.30789 45.3193 5.45318 45.1574C5.59846 44.9954 5.67346 44.7824 5.66169 44.5652L5.22911 36.5953C5.1765 35.6258 5.94584 34.8056 6.92442 34.8056H36.9836C37.955 34.8056 38.7319 35.6185 38.6789 36.5953L37.9081 50.7976H25.0447C25.2014 49.8605 25.6234 48.9792 26.2734 48.2571L26.2969 48.2309C28.78 45.4529 28.0368 41.109 24.8273 39.2853C24.0037 38.8174 22.9577 39.4009 22.9577 40.3709V44.093C22.9576 44.175 22.925 44.2537 22.867 44.3116C22.809 44.3696 22.7303 44.4022 22.6483 44.4023H21.2597C21.1776 44.4022 21.099 44.3696 21.041 44.3116C20.983 44.2536 20.9503 44.175 20.9502 44.093V40.3709C20.9502 39.4028 19.9059 38.8164 19.0807 39.2853C15.862 41.114 15.1339 45.4596 17.6135 48.2336L17.6345 48.2571C18.2845 48.9791 18.7065 49.8604 18.8633 50.7975H5.99998L5.86841 48.3723C5.84391 47.9199 5.45727 47.5726 5.00489 47.5976C4.78765 47.6094 4.58398 47.7069 4.4387 47.8689C4.29341 48.0308 4.21841 48.2439 4.23019 48.4611L4.35695 50.7975H2.5842C2.48708 50.7975 2.39137 50.8034 2.29698 50.8137V48.5734C2.29698 46.3683 2.85578 44.1957 3.89397 42.2673ZM20.5208 50.7975C20.3529 49.4533 19.7768 48.1845 18.8541 47.1595L18.8343 47.1373C17.2493 45.3644 17.4616 42.6227 19.3097 41.1105V44.0929C19.3097 45.1681 20.1845 46.0428 21.2598 46.0428H22.6484C23.7237 46.0428 24.5984 45.168 24.5984 44.0929V41.1105C26.4343 42.6126 26.6695 45.3523 25.0718 47.1396L25.0541 47.1594C24.1313 48.1845 23.5551 49.4533 23.3872 50.7975H20.5208ZM41.3237 54.3252H2.5842C2.06391 54.3252 1.64062 53.902 1.64062 53.3818C1.64062 52.8616 2.06391 52.4382 2.5842 52.4382H41.3237C41.844 52.4382 42.2673 52.8615 42.2673 53.3818C42.2673 53.9021 41.844 54.3252 41.3237 54.3252Z" fill="black"/>
<path d="M55.1774 5.64813C55.395 5.64813 55.6036 5.56171 55.7575 5.40787C55.9113 5.25403 55.9977 5.04538 55.9977 4.82782V3.24013C55.9977 1.47241 54.5596 0.0342407 52.7917 0.0342407H38.9951C37.2272 0.0342407 35.7891 1.47241 35.7891 3.24013V10.1404C35.7891 11.9082 37.2272 13.3464 38.9951 13.3464C39.147 13.3466 39.2926 13.407 39.4 13.5144C39.5074 13.6218 39.5678 13.7674 39.568 13.9193V18.1866C39.568 18.8029 39.967 19.3274 40.561 19.4918C41.1585 19.6572 41.7688 19.4085 42.0839 18.8831L45.2372 13.6246C45.2883 13.54 45.3604 13.4699 45.4465 13.4211C45.5325 13.3724 45.6297 13.3467 45.7286 13.3464H52.7918C54.5597 13.3464 55.9978 11.9082 55.9978 10.1404V8.66294C55.9978 8.44538 55.9114 8.23673 55.7576 8.08289C55.6037 7.92906 55.3951 7.84263 55.1775 7.84263C54.96 7.84263 54.7513 7.92906 54.5975 8.08289C54.4436 8.23673 54.3572 8.44538 54.3572 8.66294V10.1404C54.3572 11.0036 53.655 11.7058 52.7918 11.7058H45.7285C44.9552 11.7058 44.2278 12.1178 43.8301 12.7809L41.2085 17.1526V13.9193C41.2085 12.6988 40.2155 11.7058 38.995 11.7058C38.1318 11.7058 37.4296 11.0036 37.4296 10.1404V3.24013C37.4296 2.37705 38.1318 1.67487 38.995 1.67487H52.7917C53.6549 1.67487 54.3571 2.37705 54.3571 3.24013V4.82782C54.3571 5.04538 54.4435 5.25403 54.5974 5.40787C54.7512 5.56171 54.9599 5.64813 55.1774 5.64813Z" fill="black"/>
</g>
<defs>
<clipPath id="clip0_971_4203">
<rect width="56" height="56" fill="white"/>
</clipPath>
</defs>
</svg>

<svg width="56" height="56" fill="none" xmlns="http://www.w3.org/2000/svg"><g clip-path="url(#clip0_971_4203)"><path d="M52.792.854H38.995a2.386 2.386 0 0 0-2.386 2.386v6.9a2.385 2.385 0 0 0 2.386 2.386c.77 0 1.393.624 1.393 1.393v4.267c0 .542.714.74.992.275l3.154-5.258a1.394 1.394 0 0 1 1.194-.677h7.064a2.385 2.385 0 0 0 2.385-2.386v-6.9A2.385 2.385 0 0 0 52.792.854z" fill="#B3E59F"/><path d="M52.793.854h-7.146a2.386 2.386 0 0 1 2.386 2.386v6.9a2.386 2.386 0 0 1-2.386 2.386h-6.65c.769 0 1.392.624 1.392 1.393v4.267c0 .542.714.74.992.275l3.154-5.259a1.394 1.394 0 0 1 1.195-.676h7.063a2.386 2.386 0 0 0 2.386-2.386v-6.9A2.386 2.386 0 0 0 52.792.854z" fill="#95D6A4"/><path d="M28.456 34.233a2.389 2.389 0 0 1-1.937-2.346v-6.561h-9.132v6.56c0 1.17-.845 2.137-1.938 2.346 0 0 13.625.12 13.007 0z" fill="#FFDDCE"/><path d="M30.99 34.72c-.65-.125-18.072 0-18.072 0A14.108 14.108 0 0 0 1.477 48.574v4.652a1.91 1.91 0 0 0 1.91 1.91H40.52a1.91 1.91 0 0 0 1.911-1.91v-4.652c0-6.764-4.8-12.576-11.442-13.854z" fill="#FFD064"/><path d="M38.614 52.922H5.294L4.41 36.64a2.518 2.518 0 0 1 2.514-2.655h30.06a2.518 2.518 0 0 1 2.514 2.655l-.884 16.282z" fill="#EAF2FF"/><path d="M36.982 33.985h-7.146a2.518 2.518 0 0 1 2.514 2.655l-.884 16.282h7.146l.884-16.282a2.518 2.518 0 0 0-2.514-2.655z" fill="#DBE8F9"/><path d="M41.324 51.618H2.584a1.764 1.764 0 1 0 0 3.528h38.74a1.764 1.764 0 1 0 0-3.528z" fill="#9BC4F9"/><path d="M41.326 51.618h-5.433v1.764c0 .974-.79 1.764-1.764 1.764h7.197a1.764 1.764 0 0 0 0-3.528zm-17.169 0c0-1.446.542-2.836 1.509-3.91l.022-.024a5.001 5.001 0 0 0-1.263-7.686.43.43 0 0 0-.645.373v3.722a1.13 1.13 0 0 1-1.13 1.13h-1.388a1.13 1.13 0 0 1-1.13-1.13V40.37a.43.43 0 0 0-.644-.373 5.001 5.001 0 0 0-1.263 7.686l.022.024a5.845 5.845 0 0 1 1.508 3.91h4.402z" fill="#7FB2F9"/><path d="M31.504 16.648l-.61.002-.01-2.459c-.022-5.152-4.274-8.721-8.988-8.755-4.693.074-8.935 3.66-8.914 8.832L12.99 16l.003.726-.61.003a1.63 1.63 0 0 0-1.613 1.646l.007 1.817a1.63 1.63 0 0 0 1.627 1.633l.612-.003c.06 2.38 1.058 4.666 2.85 6.214 1.442 1.246 3.466 2.33 6.134 2.35 2.668-.042 4.683-1.144 6.115-2.402 1.778-1.564 2.757-3.858 2.797-6.238l.613-.003a1.63 1.63 0 0 0 1.613-1.646l-.008-1.817a1.63 1.63 0 0 0-1.626-1.633z" fill="#FFDDCE"/><path d="M33.13 18.28a1.63 1.63 0 0 0-1.627-1.632l-.61.002-.01-2.459c-.017-4.108-2.725-7.207-6.21-8.313a8.596 8.596 0 0 1 1.186 4.376l.029 11.493c-.04 2.38-1.019 4.674-2.797 6.237-.95.835-2.158 1.601-3.642 2.034a9.3 9.3 0 0 0 2.55.368c2.669-.041 4.684-1.143 6.116-2.401 1.778-1.564 2.756-3.858 2.797-6.238l.613-.003a1.63 1.63 0 0 0 1.613-1.646l-.008-1.817z" fill="#FFCBBE"/><path d="M30.907 15.167v6.763h1.796a1.823 1.823 0 0 0 1.824-1.824V16.99a1.823 1.823 0 0 0-1.824-1.823h-1.796zm-17.905 0v6.763h-1.796a1.823 1.823 0 0 1-1.823-1.824V16.99c0-1.007.816-1.823 1.823-1.823h1.796z" fill="#9BC4F9"/><path d="M30.306 7.583h-.092a.922.922 0 0 1-.921-.922 2.73 2.73 0 0 0-2.73-2.73h-8.688a7 7 0 0 0-7 7v4.627a1.598 1.598 0 0 0 1.072 1.508l1.724.6a.926.926 0 0 0 1.231-.876l-.003-3.262c-.007-1.587 1.258-2.878 2.825-2.885h.035c.477-.002.952.071 1.407.218.803.258 1.635.414 2.479.41h.621c.844.004 1.676-.152 2.479-.41.454-.147.93-.22 1.407-.218h.034c1.568.007 2.833 1.298 2.826 2.885l-.003 3.262a.927.927 0 0 0 1.231.876l1.724-.6a1.597 1.597 0 0 0 1.072-1.508v-5.246a2.73 2.73 0 0 0-2.73-2.73z" fill="#756E78"/><path d="M30.306 7.583h-.092a.922.922 0 0 1-.922-.922 2.73 2.73 0 0 0-2.73-2.73h-3.464c1.67 1.542 2.751 3.732 2.762 6.323l.001.398c.097-.006.194-.01.29-.01l.035.001c1.567.007 2.832 1.298 2.826 2.885l-.004 3.262a.926.926 0 0 0 1.232.876l1.723-.6a1.597 1.597 0 0 0 1.072-1.508v-5.246a2.73 2.73 0 0 0-2.73-2.73z" fill="#665E66"/><path d="M28.145 26.915h-2.059a1.422 1.422 0 1 1 0-2.845h2.059a1.422 1.422 0 0 1 0 2.845z" fill="#DB636E"/><path d="M51.507 4.074h-7.158a.82.82 0 1 0 0 1.641h7.158a.82.82 0 0 0 0-1.64zM40.285 5.715h.872a.82.82 0 1 0 0-1.64h-.872a.82.82 0 0 0 0 1.64zm0 3.854h11.222a.82.82 0 0 0 0-1.641H40.285a.82.82 0 0 0 0 1.64zm2.967 39.004c0-3.276-1.094-6.491-3.087-9.088l.152-2.8a3.336 3.336 0 0 0-3.334-3.52h-8.979a1.565 1.565 0 0 1-.664-1.278v-2.29c1.393-.901 2.37-1.928 3.088-3.15h1.588a3.334 3.334 0 0 0 3.33-3.33V16.99a2.642 2.642 0 0 0-1.491-2.378v-4.3a3.554 3.554 0 0 0-3.55-3.55h-.092a.102.102 0 0 1-.102-.101 3.554 3.554 0 0 0-3.55-3.55h-8.687c-4.312 0-7.82 3.508-7.82 7.82v3.68a2.643 2.643 0 0 0-1.493 2.38v3.115a2.647 2.647 0 0 0 2.644 2.643h1.06c.273 2.319 1.36 4.436 3.064 5.908.391.338.805.649 1.238.93v2.3c0 .51-.251.984-.666 1.278H6.924a3.336 3.336 0 0 0-3.333 3.519l.152 2.8a14.982 14.982 0 0 0-3.087 9.09v3.09A2.573 2.573 0 0 0 0 53.381a2.587 2.587 0 0 0 2.584 2.584h38.74a2.587 2.587 0 0 0 2.584-2.584c0-.66-.249-1.262-.656-1.719v-3.09zm-1.641 0v2.24a2.602 2.602 0 0 0-.287-.016H39.55l.463-8.53a13.33 13.33 0 0 1 1.597 6.306zm-7.99-31.983a.999.999 0 0 1 .085.4v3.116c0 .553-.45 1.003-1.003 1.003h-.976v-3.092l.506-.176a2.417 2.417 0 0 0 1.388-1.251zm-5.476 9.504h-2.059a.602.602 0 0 1 0-1.203h2.059a.602.602 0 0 1 0 1.203zm3.87-1.287h-.828a9.654 9.654 0 0 0 .474-2.057h1.042c.355 0 .693-.071 1.003-.198v.565c0 .932-.758 1.69-1.69 1.69zM11.695 10.932a6.187 6.187 0 0 1 6.18-6.18h8.688c1.052 0 1.909.856 1.909 1.909 0 .96.782 1.742 1.742 1.742h.092c1.053 0 1.91.856 1.91 1.91v5.245a.777.777 0 0 1-.522.733l-1.724.6a.107.107 0 0 1-.097-.013.106.106 0 0 1-.044-.087l.003-3.26c.01-2.379-2.218-4.454-5.339-3.451-1.57.504-3.512.503-5.076 0-3.09-.993-5.35 1.045-5.34 3.449l.005 3.262a.106.106 0 0 1-.142.1l-1.724-.6a.777.777 0 0 1-.521-.733v-4.626zm-1.492 9.174V16.99c0-.138.03-.274.085-.4a2.417 2.417 0 0 0 1.389 1.25l.505.177v3.092h-.975c-.554 0-1.004-.45-1.004-1.003zm3.635 1.696c-.027-1.078-.01-2.223-.015-3.27a1.747 1.747 0 0 0 1.9-1.742l-.005-3.266c-.005-1.332 1.19-2.527 3.197-1.882 1.902.611 4.184.61 6.08 0 1.913-.614 3.202.467 3.197 1.885l-.004 3.262a1.746 1.746 0 0 0 1.9 1.742v3.338a8.092 8.092 0 0 1-.34 2.058 2.234 2.234 0 0 0-1.602-.677h-2.059a2.245 2.245 0 0 0-2.242 2.242 2.245 2.245 0 0 0 2.242 2.243h1.042c-1.515 1.182-3.238 1.8-5.131 1.83-4.141-.033-8.042-3.092-8.16-7.763zm4.371 10.085V30.45a9.999 9.999 0 0 0 3.787.755H22.013c1.3-.02 2.532-.272 3.687-.748v1.429c0 .448.094.881.266 1.278h-8.025c.176-.403.267-.838.267-1.278zM3.894 42.267l.13 2.387a.82.82 0 1 0 1.638-.089l-.433-7.97a1.697 1.697 0 0 1 1.695-1.79h30.06c.971 0 1.748.813 1.695 1.79l-.77 14.203H25.044a5.038 5.038 0 0 1 1.228-2.54l.024-.027c2.483-2.778 1.74-7.122-1.47-8.946-.823-.468-1.87.116-1.87 1.086v3.722a.31.31 0 0 1-.309.31H21.26a.31.31 0 0 1-.31-.31v-3.722c0-.968-1.044-1.555-1.87-1.086-3.218 1.829-3.946 6.175-1.466 8.949l.02.023a5.038 5.038 0 0 1 1.23 2.54H6l-.132-2.425a.82.82 0 1 0-1.638.09l.127 2.335H2.584c-.097 0-.193.006-.287.017v-2.24c0-2.206.559-4.378 1.597-6.307zm16.627 8.53a6.67 6.67 0 0 0-1.667-3.637l-.02-.023a4.184 4.184 0 0 1 .476-6.026v2.982c0 1.075.875 1.95 1.95 1.95h1.388c1.076 0 1.95-.875 1.95-1.95V41.11a4.184 4.184 0 0 1 .474 6.03l-.018.02a6.67 6.67 0 0 0-1.667 3.638h-2.866zm20.803 3.528H2.584a.945.945 0 0 1 0-1.887h38.74a.945.945 0 0 1 0 1.887z" fill="#000"/><path d="M55.177 5.648a.82.82 0 0 0 .82-.82V3.24A3.21 3.21 0 0 0 52.793.034H38.995A3.21 3.21 0 0 0 35.79 3.24v6.9a3.21 3.21 0 0 0 3.206 3.206.574.574 0 0 1 .573.573v4.268c0 .616.399 1.14.993 1.305a1.341 1.341 0 0 0 1.523-.609l3.153-5.258a.577.577 0 0 1 .492-.279h7.063a3.21 3.21 0 0 0 3.206-3.206V8.663a.82.82 0 1 0-1.64 0v1.477c0 .864-.703 1.566-1.566 1.566h-7.064c-.773 0-1.5.412-1.898 1.075l-2.621 4.372v-3.234c0-1.22-.994-2.213-2.214-2.213a1.567 1.567 0 0 1-1.565-1.566v-6.9c0-.863.702-1.565 1.565-1.565h13.797c.863 0 1.565.702 1.565 1.565v1.588a.82.82 0 0 0 .82.82z" fill="#000"/></g><defs><clipPath id="clip0_971_4203"><path fill="#fff" d="M0 0h56v56H0z"/></clipPath></defs></svg>
